packages/core/src/svgs/belt.svg

<svg width="24" height="24" viewBox="0 0 24 24" fill="none" xmlns="http://www.w3.org/2000/svg">
<g clip-path="url(#clip0_31_6952)">
<path d="M0 0H24V24H0V0Z" fill="#FCB251"/>
<path fill-rule="evenodd" clip-rule="evenodd" d="M7.71415 17.7984V13.7141H10.2856V16.007C10.2856 16.1613 10.4099 16.2856 10.5599 16.2856H13.7313C14.4299 16.2856 14.9999 15.4627 14.9999 14.7513C14.9999 14.0441 14.417 13.2941 13.7141 13.2941H10.7141V10.7141H13.7227C14.4299 10.7141 14.9999 9.95557 14.9999 9.24415C14.9999 8.52843 14.4299 7.71415 13.7227 7.71415H10.5599C10.4867 7.71527 10.417 7.74512 10.3656 7.79724C10.3143 7.84936 10.2856 7.91957 10.2856 7.99272V10.2856H7.71415V6.20129C7.71415 5.85415 7.99272 5.57129 8.33558 5.57129H13.8899C15.9256 5.57129 17.5713 7.66272 17.5713 9.71557C17.5413 10.187 17.2927 11.2927 16.5084 11.9227C16.8641 12.2956 17.5713 13.337 17.5713 14.4856C17.5713 16.427 16.0156 18.4284 14.0913 18.4284H8.33558C7.99272 18.4284 7.71415 18.1456 7.71415 17.7984ZM13.3799 11.987C13.3799 12.1584 13.2384 12.2999 13.067 12.2999C12.984 12.2999 12.9045 12.2669 12.8458 12.2082C12.7871 12.1496 12.7541 12.07 12.7541 11.987C12.7541 11.8156 12.8956 11.6699 13.067 11.6699C13.2384 11.6699 13.3799 11.8113 13.3799 11.987ZM12.1413 11.987C12.1413 12.1584 12.0041 12.2999 11.8327 12.2999C11.7497 12.2999 11.6702 12.2669 11.6115 12.2082C11.5528 12.1496 11.5199 12.07 11.5199 11.987C11.5199 11.8156 11.6613 11.6699 11.8327 11.6699C12.0041 11.6699 12.1413 11.8113 12.1413 11.987ZM7.28557 13.2856V10.7141H6.95986C6.32986 10.7141 5.57129 11.2884 5.57129 11.9999C5.57129 12.7113 6.32986 13.2856 6.95986 13.2856H7.28557ZM7.85986 10.7141C7.77843 10.7141 7.71415 10.7913 7.71415 10.8856V13.1141C7.71415 13.2084 7.77843 13.2856 7.85986 13.2856H10.1399C10.2213 13.2856 10.2856 13.2084 10.2856 13.1141V10.8856C10.2856 10.7913 10.2213 10.7141 10.1399 10.7141H7.85986ZM8.25415 11.1427C8.19415 11.1427 8.14272 11.1984 8.14272 11.2713V12.7284C8.14272 12.8013 8.19415 12.857 8.25415 12.857H9.74557C9.80557 12.857 9.857 12.8013 9.857 12.7284V12.2784H9.17557C9.04272 12.2784 8.93557 12.1499 8.93557 11.9956C8.93557 11.837 9.04272 11.7127 9.17557 11.7127H9.857V11.267C9.857 11.1984 9.80557 11.1427 9.74557 11.1427H8.25415Z" fill="white"/>
</g>
<defs>
<clipPath id="clip0_31_6952">
<rect width="24" height="24" fill="white"/>
</clipPath>
</defs>
</svg>

<svg xmlns="http://www.w3.org/2000/svg" width="24" height="24" fill="none" viewBox="0 0 24 24"><g clip-path="url(#a)"><path fill="#FCB251" d="M0 0h24v24H0z"/><path fill="#fff" fill-rule="evenodd" d="M7.714 17.798v-4.084h2.572v2.293c0 .154.124.279.274.279h3.171c.699 0 1.269-.823 1.269-1.535 0-.707-.583-1.457-1.286-1.457h-3v-2.58h3.009c.707 0 1.277-.758 1.277-1.47 0-.716-.57-1.53-1.277-1.53H10.56a.28.28 0 0 0-.274.279v2.293H7.714V6.2c0-.347.279-.63.622-.63h5.554c2.036 0 3.681 2.092 3.681 4.145-.03.471-.278 1.577-1.063 2.207.356.373 1.063 1.414 1.063 2.563 0 1.941-1.555 3.942-3.48 3.942H8.336a.626.626 0 0 1-.622-.63m5.666-5.811a.313.313 0 1 1-.626 0c0-.171.142-.317.313-.317s.313.141.313.317m-1.239 0a.311.311 0 1 1-.621 0c0-.171.141-.317.313-.317.171 0 .308.141.308.317m-4.855 1.299v-2.572H6.96c-.63 0-1.389.574-1.389 1.286 0 .711.759 1.286 1.389 1.286zm.574-2.572c-.082 0-.146.077-.146.172v2.228c0 .094.064.172.146.172h2.28c.081 0 .146-.078.146-.172v-2.228c0-.095-.065-.172-.146-.172zm.394.429c-.06 0-.111.055-.111.128v1.457c0 .073.051.129.111.129h1.492c.06 0 .111-.056.111-.129v-.45h-.681c-.133 0-.24-.128-.24-.282 0-.159.107-.283.24-.283h.681v-.446c0-.069-.051-.124-.111-.124z" clip-rule="evenodd"/></g><defs><clipPath id="a"><path fill="#fff" d="M0 0h24v24H0z"/></clipPath></defs></svg>
